!!!COM: Bach, Johann Sebastian
!!!OPR: Joh. Seb. Bachs vierstimmige Choralgesänge
!!!XEN: Four-part Chorales
!!!OTL: Chorale 13. Als Jesus Christus in der Nacht
!!!SCT: BWV 265
!!!SCA: Thematisch-systematisches Verzeichnis der musikalischen Werke Johann Sebastian Bach: Bach-Werke-Verzeichnis (Schmieder)
!!!YOR: Bach Gesellschaft Edition xxxix
!!!ENC: Steven Rasmussen
!!!CDT: 1685/3//-1750/7/28/
!!!OCY: Deutschland
!!!YEC: Copyright (c) 1994, 2000 Center for Computer Assisted Research in the Humanities
!!!YEM: Rights to all derivative editions reserved
!!!YEN: United States of America
**kern	**kern	**kern	**kern	**silbe
*I:[BASSO]	*I:[TENORE]	*I:[ALTO]	*I:[SOPRANO]	*I:[SOPRANO]
*clefF4	*clefGv2	*clefG2	*clefG2	*
*k[]	*k[]	*k[]	*k[]	*
*a:	*a:	*a:	*a:	*
*M4/4	*M4/4	*M4/4	*M4/4	*
4D	4d	4f	4a	Als
=1	=1	=1	=1	=1
4E	4c	4g	4cc	Je-
4F	4c	8gL	4a	-sus
.	.	8fJ	.	.
4G	4B-	8fL	4b-	Chri-
.	.	8eJ	.	.
4A	4c	4f	4a	-stus
=2	=2	=2	=2	=2
4B-	4d	4f	4g	in
4c	8.cL	8fL	4g	der
.	.	8eJ	.	.
.	16B-Jk	.	.	.
4F;	4A;	4c;	4f;	Nacht,
8FL	4c	4a	4a	da-
8EJ	.	.	.	.
=3	=3	=3	=3	=3
4D	4f	8aL	4b	-rin
.	.	8g#J	.	.
4C	4e	4a	4cc	er
4BB	4d	8aL	4dd	ward
.	.	8g#J	.	.
4AA	4e	4a	4cc	ver-
=4	=4	=4	=4	=4
4D	4f	4a	2b	-ra-
4E	8eL	4g#	.	.
.	8dJ	.	.	.
4AA;	4c#;	4e;	4a;	-ten,
4AA	4A	4c#	4e	auf
=5	=5	=5	=5	=5
(8DD	4A	4d	4f	un-
4D)	.	.	.	.
.	4A	4d	4f	-ser
8C	.	.	.	.
(8BB	4G	8dL	4g	Heil
4E)	.	8BJ	.	.
.	4B-	8c#L	4g	war
8D	.	8dJ	.	.
=6	=6	=6	=6	=6
8C#L	4A	8eL	4a	ganz
8BBJ	.	8dJ	.	.
8C#L	4A	8eL	4a	be-
8AAJ	.	8c#J	.	.
4D;	4A;	4d;	4f;	-dacht,
4D	4F	8AL	4d	das-
.	.	8BJ	.	.
=7	=7	=7	=7	=7
8CL	4G	4c	4e	-selb'
8BB-J	.	.	.	.
4AA	8AL	4c	4f	uns
.	8FJ	.	.	.
4EE	8B-L	4c#	4g	zu
.	8GJ	.	.	.
8FFL	4A	4d	4f	er-
8GGJ	.	.	.	.
=8	=8	=8	=8	=8
2AA	8AL	4d	2e	-stat-
.	8E	.	.	.
.	8A	4c#	.	.
.	8GJ	.	.	.
4D;	4F#;	4A;	4d;	-ten.
==|!	==|!	==|!	==|!	==|!
*-	*-	*-	*-	*-
!!!RWG: Key is interpreted using the Humdrum key tool.
!!!URL-pdf: https://s9.imslp.org/files/imglnks/usimg/6/6b/IMSLP24489-PMLP09471-CCARH_Bach_Chorales.pdf#page=7 Musedata edition
!!!URL-pdf: https://s9.imslp.org/files/imglnks/usimg/7/7a/IMSLP04155-Bach_-_BGA_253-438.pdf#page=8 	Bach-Gesellschaft Ausgabe, Band 39 (pp.175-276) Leipzig: Breitkopf und Härtel, 1892. Plate B.W. XXXIX.
!!!END: 1994/05/06
!!!EMD: Converted from MuseData to Humdrum Dec 19, 2000, by Andreas Kornstaedt using muse2kern.
!!!EED: Craig Stuart Sapp
!!!EEV: 2024/03/31
!!!filter-keyboard: satb2gs
!!!title: @{OTL} (@{SCT})
